X:397
T:Swallow's Tail, The
R:reel
H:See also #122
Z:id:hn-reel-397
M:C|
K:Amix
ag|~e3d eA~A2|~e3f ~g3e|gedB dG~G2|BG (3Bcd g2ag|
~e3d eA~A2|~e3f ~g3a|ag~g2 aged|(3efe dB A2:|
|:(3Bcd|eaag ~a3g|~e3f ~g3e|gedB dG~G2|BG (3Bcd g2ag|
ea~a2 ea~a2|~e3f ~g3a|ag~g2 aged|(3efe dB A2:|

